symbols/web/filter_frames/materialsymbolsrounded/filter_frames_wght600grad200fill1_24px.svg

<svg xmlns="http://www.w3.org/2000/svg" height="24" width="24"><path d="M3.725 23.675q-1.275 0-2.175-.9-.9-.9-.9-2.175V6.775q0-1.3.9-2.188.9-.887 2.175-.887H7.7L10.925.475Q11.375 0 12 0t1.075.475L16.3 3.7h3.975q1.275 0 2.175.887.9.888.9 2.188V20.6q0 1.275-.9 2.175-.9.9-2.175.9Zm-.225-2.85h17V6.55h-17v14.275ZM6.65 19.2q-.65 0-1.088-.45-.437-.45-.437-1.075V9.7q0-.65.437-1.088Q6 8.175 6.65 8.175h10.7q.65 0 1.088.437.437.438.437 1.088v7.975q0 .625-.437 1.075-.438.45-1.088.45Z"/></svg>

<svg xmlns="http://www.w3.org/2000/svg" height="24" width="24"><path d="M3.725 23.675Q2.45 23.675 1.55 22.775Q0.65 21.875 0.65 20.6V6.775Q0.65 5.475 1.55 4.587Q2.45 3.7 3.725 3.7H7.7L10.925 0.475Q11.375 0 12 0Q12.625 0 13.075 0.475L16.3 3.7H20.275Q21.55 3.7 22.45 4.587Q23.35 5.475 23.35 6.775V20.6Q23.35 21.875 22.45 22.775Q21.55 23.675 20.275 23.675ZM3.5 20.825H20.5Q20.5 20.825 20.5 20.825Q20.5 20.825 20.5 20.825V6.55Q20.5 6.55 20.5 6.55Q20.5 6.55 20.5 6.55H3.5Q3.5 6.55 3.5 6.55Q3.5 6.55 3.5 6.55V20.825Q3.5 20.825 3.5 20.825Q3.5 20.825 3.5 20.825ZM6.65 19.2Q6 19.2 5.562 18.75Q5.125 18.3 5.125 17.675V9.7Q5.125 9.05 5.562 8.612Q6 8.175 6.65 8.175H17.35Q18 8.175 18.438 8.612Q18.875 9.05 18.875 9.7V17.675Q18.875 18.3 18.438 18.75Q18 19.2 17.35 19.2Z"/></svg>
